;FLAVOR:Marlin
;TIME:3782
;Filament used: 1.18228m
;Layer height: 0.1
;Generated with Cura_SteamEngine 3.0.2
M190 S60
M104 S210
M109 S210
M82 ; absolute extrusion mode
G21 ;metric values
G90 ;absolute positioning
M82 ;set extruder to absolute mode
M107 ;start with the fan off
G28 X0 Y0 ;move X/Y to min endstops
G28 Z0 ;move Z to min endstops
G1 Z15.0 F9000 ;move the platform down 15mm
G92 E0 ;zero the extruded length
G1 F200 E3 ;extrude 3mm of feed stock
G92 E0 ;zero the extruded length again
G1 F9000
;Put printing message on LCD screen
M117 Printing...
;LAYER_COUNT:767
;LAYER:0
M107
G0 F2100 X97.482 Y81.771 Z0.3
;TYPE:SKIRT
G1 F1500 X97.88 Y81.296 E0.03092
G1 X98.336 Y80.877 E0.06181
G1 X98.842 Y80.52 E0.09271
G1 X99.39 Y80.231 E0.12362
G1 X99.971 Y80.015 E0.15454
G1 X100.353 Y79.917 E0.17422
G1 X100.607 Y79.863 E0.18717
G1 X101.22 Y79.773 E0.21808
G1 X101.839 Y79.764 E0.24897
G1 X102.454 Y79.834 E0.27985
G1 X103.056 Y79.982 E0.31078
G1 X103.633 Y80.207 E0.34167
G1 X104.176 Y80.505 E0.37258
G1 X104.677 Y80.869 E0.40347
G1 X105.149 Y81.321 E0.43608
G1 X105.265 Y81.448 E0.44466
G1 X105.652 Y81.931 E0.47553
G1 X105.974 Y82.46 E0.50643
G1 X106.225 Y83.026 E0.53732
G1 X106.401 Y83.62 E0.56823
G1 X106.5 Y84.232 E0.59916
G1 X106.52 Y84.571 E0.6161
G1 X106.531 Y85.036 E0.63931
G1 X106.488 Y85.802 E0.67758
G1 X106.253 Y87.516 E0.76389
G1 X106.129 Y88.123 E0.7948
G1 X105.928 Y88.709 E0.82571
G1 X105.654 Y89.264 E0.85659
G1 X105.31 Y89.779 E0.88749
G1 X104.903 Y90.246 E0.91839
G1 X104.439 Y90.657 E0.94932
G1 X103.926 Y91.004 E0.98022
G1 X103.373 Y91.282 E1.0111
G1 X102.789 Y91.487 E1.04198
G1 X102.183 Y91.615 E1.07288
G1 X101.565 Y91.664 E1.10381
G1 X100.947 Y91.632 E1.13468
G1 X100.337 Y91.522 E1.1656
G1 X99.747 Y91.334 E1.1965
G1 X99.186 Y91.071 E1.22741
G1 X98.664 Y90.739 E1.25827
G1 X98.188 Y90.341 E1.28923
G1 X97.768 Y89.886 E1.32012
G1 X97.41 Y89.381 E1.351
G1 X97.12 Y88.834 E1.38189
G1 X96.903 Y88.254 E1.41279
G1 X96.738 Y87.491 E1.45173
G1 X96.521 Y85.843 E1.53466
G1 X96.48 Y85.225 E1.56556
G1 X96.513 Y84.656 E1.594
G1 X96.584 Y84.052 E1.62434
G1 X96.696 Y83.442 E1.65528
G1 X96.885 Y82.853 E1.68614
G1 X97.149 Y82.292 E1.71707
G1 X97.482 Y81.771 E1.74792
G0 F2100 X97.866 Y81.927
G1 F1500 X98.258 Y81.482 E1.77751
G1 X98.707 Y81.095 E1.80708
G1 X99.204 Y80.771 E1.83668
G1 X99.74 Y80.518 E1.86625
G1 X100.436 Y80.308 E1.90252
G1 X100.69 Y80.254 E1.91548
G1 X101.277 Y80.17 E1.94506
G1 X101.87 Y80.166 E1.97464
G1 X102.458 Y80.241 E2.00422
G1 X103.031 Y80.395 E2.03382
G1 X103.577 Y80.625 E2.06338
G1 X104.088 Y80.926 E2.09297
G1 X104.554 Y81.293 E2.12256
G1 X104.854 Y81.591 E2.14365
G1 X104.97 Y81.718 E2.15224
G1 X105.339 Y82.181 E2.18177
G1 X105.643 Y82.691 E2.2114
G1 X105.876 Y83.236 E2.24097
G1 X106.033 Y83.808 E2.27056
G1 X106.12 Y84.581 E2.30937
G1 X106.131 Y85.046 E2.33257
G1 X106.091 Y85.748 E2.36765
G1 X105.856 Y87.462 E2.45396
G1 X105.736 Y88.042 E2.48351
G1 X105.539 Y88.602 E2.51313
G1 X105.269 Y89.129 E2.54267
G1 X104.93 Y89.616 E2.57228
G1 X104.529 Y90.053 E2.60187
G1 X104.073 Y90.431 E2.63142
G1 X103.57 Y90.745 E2.661
G1 X103.029 Y90.989 E2.69061
G1 X102.46 Y91.157 E2.72021
G1 X101.874 Y91.248 E2.74979
G1 X101.282 Y91.259 E2.77933
G1 X100.693 Y91.19 E2.80892
G1 X100.118 Y91.042 E2.83854
G1 X99.569 Y90.819 E2.8681
G1 X99.055 Y90.524 E2.89767
G1 X98.585 Y90.162 E2.92727
G1 X98.168 Y89.741 E2.95683
G1 X97.811 Y89.267 E2.98644
G1 X97.522 Y88.75 E3.01599
G1 X97.304 Y88.198 E3.04559
G1 X97.135 Y87.438 E3.08444
G1 X96.918 Y85.79 E3.16737
G1 X96.88 Y85.199 E3.19691
G1 X96.91 Y84.702 E3.22175
G1 X96.981 Y84.098 E3.25209
G1 X97.09 Y83.515 E3.28168
G1 X97.276 Y82.952 E3.31127
G1 X97.536 Y82.42 E3.34081
G1 X97.866 Y81.927 E3.3704
G0 F2100 X98.248 Y82.088
G1 F1500 X98.635 Y81.676 E3.39861
G1 X99.076 Y81.322 E3.42682
G1 X99.562 Y81.034 E3.455
G1 X100.084 Y80.818 E3.48319
G1 X100.519 Y80.699 E3.50569
G1 X100.773 Y80.645 E3.51864
G1 X101.333 Y80.567 E3.54685
G1 X101.898 Y80.569 E3.57504
G1 X102.458 Y80.65 E3.60327
G1 X103 Y80.809 E3.63145
G1 X103.515 Y81.043 E3.65967
G1 X103.991 Y81.348 E3.68787
G1 X104.558 Y81.86 E3.72599
G1 X104.674 Y81.987 E3.73457
G1 X105.025 Y82.431 E3.76281
G1 X105.31 Y82.919 E3.791
G1 X105.523 Y83.443 E3.81922
G1 X105.66 Y83.991 E3.8474
G1 X105.72 Y84.59 E3.87743
G1 X105.731 Y85.055 E3.90064
G1 X105.695 Y85.693 E3.93252
G1 X105.46 Y87.407 E4.01883
G1 X105.344 Y87.961 E4.04707
G1 X105.151 Y88.492 E4.07526
G1 X104.885 Y88.991 E4.10347
G1 X104.551 Y89.447 E4.13167
G1 X104.156 Y89.852 E4.15989
G1 X103.709 Y90.197 E4.18806
G1 X103.217 Y90.476 E4.21628
G1 X102.69 Y90.682 E4.24451
G1 X102.14 Y90.812 E4.27271
G1 X101.577 Y90.863 E4.30091
G1 X101.013 Y90.835 E4.32908
G1 X100.458 Y90.727 E4.35729
G1 X99.923 Y90.541 E4.38555
G1 X99.421 Y90.283 E4.41371
G1 X98.959 Y89.956 E4.44195
G1 X98.549 Y89.567 E4.47014
G1 X98.197 Y89.125 E4.49833
G1 X97.911 Y88.637 E4.52655
G1 X97.697 Y88.114 E4.55475
G1 X97.531 Y87.386 E4.592
G1 X97.314 Y85.738 E4.67493
G1 X97.28 Y85.174 E4.70312
G1 X97.307 Y84.749 E4.72436
G1 X97.378 Y84.145 E4.7547
G1 X97.484 Y83.59 E4.78289
G1 X97.667 Y83.055 E4.8111
G1 X97.923 Y82.551 E4.83931
G1 X98.248 Y82.088 E4.86753
G0 F2100 X98.309 Y82.687
G1 F1500 X98.629 Y82.256 E4.89431
G1 X99.009 Y81.878 E4.92105
G1 X99.441 Y81.56 E4.94781
G1 X99.916 Y81.31 E4.97459
G1 X100.602 Y81.091 E5.01052
G1 X100.856 Y81.037 E5.02347
G1 X101.388 Y80.965 E5.05026
G1 X101.924 Y80.972 E5.077
G1 X102.453 Y81.059 E5.10375
G1 X102.963 Y81.224 E5.13049
G1 X103.444 Y81.463 E5.15728
G1 X103.883 Y81.77 E5.18401
G1 X104.263 Y82.13 E5.21013
G1 X104.379 Y82.257 E5.21871
G1 X104.71 Y82.679 E5.24546
G1 X104.975 Y83.145 E5.27221
G1 X105.168 Y83.646 E5.299
G1 X105.284 Y84.169 E5.32572
G1 X105.32 Y84.6 E5.3473
G1 X105.331 Y85.065 E5.3705
G1 X105.299 Y85.639 E5.39919
G1 X105.064 Y87.353 E5.4855
G1 X104.951 Y87.877 E5.51224
G1 X104.763 Y88.379 E5.53899
G1 X104.501 Y88.848 E5.56579
G1 X104.173 Y89.272 E5.59253
G1 X103.786 Y89.643 E5.61928
G1 X103.348 Y89.952 E5.64602
G1 X102.868 Y90.193 E5.67282
G1 X102.359 Y90.359 E5.69953
G1 X101.83 Y90.449 E5.7263
G1 X101.294 Y90.458 E5.75304
G1 X100.762 Y90.388 E5.77981
G1 X100.247 Y90.24 E5.80655
G1 X99.759 Y90.017 E5.83331
G1 X99.31 Y89.723 E5.86009
G1 X98.909 Y89.367 E5.88684
G1 X98.566 Y88.955 E5.91359
G1 X98.288 Y88.496 E5.94036
G1 X98.081 Y88.001 E5.96713
G1 X97.928 Y87.334 E6.00127
G1 X97.711 Y85.686 E6.0842
G1 X97.681 Y85.151 E6.11093
G1 X97.705 Y84.796 E6.12868
G1 X97.776 Y84.192 E6.15902
G1 X97.878 Y83.665 E6.1858
G1 X98.057 Y83.16 E6.21253
G1 X98.309 Y82.687 E6.23927
G0 F2100 X98.695 Y82.828
G1 F1500 X99.009 Y82.432 E6.26449
G1 X99.381 Y82.09 E6.2897
G1 X99.803 Y81.811 E6.31494
G1 X100.264 Y81.602 E6.34019
G1 X100.686 Y81.482 E6.36208
G1 X100.94 Y81.428 E6.37503
G1 X101.441 Y81.362 E6.40024
G1 X101.946 Y81.376 E6.42545
G1 X102.443 Y81.47 E6.45068
G1 X102.919 Y81.64 E6.4759
G1 X103.362 Y81.884 E6.50113
G1 X103.761 Y82.194 E6.52634
G1 X103.968 Y82.4 E6.54091
G1 X104.084 Y82.527 E6.54949
G1 X104.394 Y82.926 E6.5747
G1 X104.638 Y83.369 E6.59993
G1 X104.809 Y83.845 E6.62516
G1 X104.903 Y84.342 E6.6504
G1 X104.92 Y84.609 E6.66375
G1 X104.931 Y85.074 E6.68695
G1 X104.902 Y85.585 E6.71249
G1 X104.667 Y87.299 E6.7988
G1 X104.559 Y87.793 E6.82403
G1 X104.375 Y88.263 E6.84921
G1 X104.119 Y88.699 E6.87443
G1 X103.797 Y89.089 E6.89966
G1 X103.418 Y89.423 E6.92487
G1 X102.991 Y89.694 E6.9501
G1 X102.526 Y89.894 E6.97535
G1 X102.036 Y90.018 E7.00057
G1 X101.533 Y90.064 E7.02577
G1 X101.028 Y90.029 E7.05102
G1 X100.536 Y89.916 E7.07621
G1 X100.067 Y89.727 E7.10144
G1 X99.634 Y89.466 E7.12666
G1 X99.247 Y89.14 E7.1519
G1 X98.917 Y88.757 E7.17713
G1 X98.651 Y88.327 E7.20235
G1 X98.456 Y87.861 E7.22756
G1 X98.324 Y87.282 E7.25718
G1 X98.107 Y85.634 E7.34011
G1 X98.081 Y85.129 E7.36534
G1 X98.102 Y84.842 E7.3797
G1 X98.173 Y84.238 E7.41004
G1 X98.271 Y83.743 E7.43521
G1 X98.447 Y83.268 E7.46048
G1 X98.695 Y82.828 E7.48568
G0 F2100 X100.816 Y108.419
G1 F1500 X101.434 Y108.37 E7.51661
G1 X102.052 Y108.402 E7.54749
G1 X102.662 Y108.512 E7.57841
G1 X103.252 Y108.7 E7.6093
G1 X103.813 Y108.963 E7.64021
G1 X104.335 Y109.295 E7.67108
G1 X104.811 Y109.692 E7.702
G1 X105.231 Y110.147 E7.73289
G1 X105.589 Y110.653 E7.76382
G1 X105.879 Y111.2 E7.79471
G1 X106.096 Y111.78 E7.8256
G1 X106.27 Y112.613 E7.86806
G1 X106.505 Y114.625 E7.96912
G1 X106.537 Y115.244 E8.00004
G1 X106.489 Y115.861 E8.03092
G1 X106.362 Y116.467 E8.06181
G1 X106.132 Y117.112 E8.09597
G1 X106.024 Y117.358 E8.10937
G1 X105.739 Y117.907 E8.14023
G1 X105.386 Y118.416 E8.17114
G1 X104.97 Y118.875 E8.20204
G1 X104.498 Y119.276 E8.23294
G1 X103.979 Y119.614 E8.26384
G1 X103.42 Y119.881 E8.29475
G1 X102.832 Y120.075 E8.32564
G1 X102.223 Y120.191 E8.35657
G1 X101.605 Y120.228 E8.38746
G1 X101.267 Y120.214 E8.40433
G1 X101.016 Y120.195 E8.41689
G1 X100.402 Y120.109 E8.44782
G1 X99.805 Y119.944 E8.47872
G1 X99.235 Y119.704 E8.50958
G1 X98.699 Y119.392 E8.54052
G1 X98.209 Y119.014 E8.5714
G1 X97.771 Y118.576 E8.6023
G1 X97.333 Y117.993 E8.63868
G1 X97.257 Y117.874 E8.64572
G1 X96.958 Y117.331 E8.67665
G1 X96.731 Y116.755 E8.70754
G1 X96.58 Y116.154 E8.73845
G1 X96.513 Y115.615 E8.76555
G1 X96.483 Y115.173 E8.78765
G1 X96.481 Y114.554 E8.81854
G1 X96.516 Y114.196 E8.83648
G1 X96.746 Y112.518 E8.92098
G1 X96.87 Y111.911 E8.95189
G1 X97.071 Y111.325 E8.9828
G1 X97.345 Y110.77 E9.01368
G1 X97.689 Y110.255 E9.04457
G1 X98.096 Y109.788 E9.07548
G1 X98.56 Y109.378 E9.10637
G1 X99.072 Y109.03 E9.13726
G1 X99.626 Y108.752 E9.16818
G1 X100.21 Y108.547 E9.19906
G1 X100.816 Y108.419 E9.22996
G0 F2100 X101.124 Y108.786
G1 F1500 X101.717 Y108.775 E9.25955
G1 X102.306 Y108.844 E9.28914
G1 X102.881 Y108.992 E9.31876
G1 X103.43 Y109.215 E9.34832
G1 X103.944 Y109.51 E9.37789
G1 X104.414 Y109.872 E9.40749
G1 X104.831 Y110.293 E9.43705
G1 X105.188 Y110.767 E9.46665
G1 X105.477 Y111.284 E9.4962
G1 X105.695 Y111.836 E9.52581
G1 X105.872 Y112.66 E9.56786
G1 X106.107 Y114.672 E9.66892
G1 X106.136 Y115.264 E9.69849
G1 X106.085 Y115.855 E9.72809
G1 X105.955 Y116.433 E9.75764
G1 X105.766 Y116.951 E9.78515
G1 X105.658 Y117.197 E9.79856
G1 X105.383 Y117.722 E9.82812
G1 X105.041 Y118.206 E9.85769
G1 X104.636 Y118.64 E9.88731
G1 X104.177 Y119.015 E9.91688
G1 X103.672 Y119.325 E9.94644
G1 X103.129 Y119.564 E9.97604
G1 X102.559 Y119.729 E10.00564
G1 X101.973 Y119.815 E10.03519
G1 X101.297 Y119.815 E10.06892
G1 X101.046 Y119.796 E10.08148
G1 X100.459 Y119.712 E10.11106
G1 X99.889 Y119.549 E10.14064
G1 X99.346 Y119.311 E10.17022
G1 X98.839 Y119.003 E10.19981
G1 X98.379 Y118.629 E10.22939
G1 X97.973 Y118.196 E10.259
G1 X97.67 Y117.777 E10.2848
G1 X97.594 Y117.658 E10.29184
G1 X97.309 Y117.138 E10.32143
G1 X97.097 Y116.585 E10.35098
G1 X96.961 Y116.007 E10.3806
G1 X96.912 Y115.588 E10.40165
G1 X96.882 Y115.146 E10.42375
G1 X96.882 Y114.553 E10.45333
G1 X96.913 Y114.25 E10.46853
G1 X97.143 Y112.572 E10.55303
G1 X97.263 Y111.992 E10.58258
G1 X97.46 Y111.432 E10.61219
G1 X97.73 Y110.905 E10.64174
G1 X98.069 Y110.418 E10.67134
G1 X98.47 Y109.981 E10.70093
G1 X98.926 Y109.603 E10.73048
G1 X99.429 Y109.289 E10.76006
G1 X99.97 Y109.045 E10.78967
G1 X100.538 Y108.877 E10.81922
G1 X101.124 Y108.786 E10.84881
G0 F2100 X100.859 Y109.222
G1 F1500 X101.422 Y109.171 E10.87701
G1 X101.986 Y109.199 E10.90518
G1 X102.541 Y109.307 E10.93339
G1 X103.075 Y109.492 E10.96159
G1 X103.578 Y109.751 E10.98981
G1 X104.039 Y110.078 E11.01801
G1 X104.45 Y110.466 E11.04621
G1 X104.802 Y110.909 E11.07444
G1 X105.088 Y111.397 E11.10266
G1 X105.302 Y111.92 E11.13085
G1 X105.475 Y112.706 E11.171
G1 X105.71 Y114.718 E11.27206
G1 X105.736 Y115.283 E11.30028
G1 X105.682 Y115.845 E11.32845
G1 X105.549 Y116.395 E11.35668
G1 X105.4 Y116.79 E11.37774
G1 X105.292 Y117.036 E11.39115
G1 X105.028 Y117.536 E11.41935
G1 X104.697 Y117.994 E11.44755
G1 X104.305 Y118.401 E11.47574
G1 X103.859 Y118.749 E11.50396
G1 X103.368 Y119.03 E11.53219
G1 X102.843 Y119.239 E11.56038
G1 X102.294 Y119.372 E11.58856
G1 X101.731 Y119.427 E11.61678
G1 X101.327 Y119.417 E11.63694
G1 X101.076 Y119.398 E11.6495
G1 X100.517 Y119.315 E11.6777
G1 X99.975 Y119.155 E11.70589
G1 X99.461 Y118.92 E11.73409
G1 X98.985 Y118.614 E11.76232
G1 X98.557 Y118.245 E11.79051
G1 X98.185 Y117.819 E11.81873
G1 X98.007 Y117.562 E11.83432
G1 X97.931 Y117.443 E11.84137
G1 X97.661 Y116.946 E11.86959
G1 X97.464 Y116.416 E11.8978
G1 X97.343 Y115.864 E11.92599
G1 X97.311 Y115.561 E11.94119
G1 X97.281 Y115.119 E11.96329
G1 X97.309 Y114.305 E12.00393
G1 X97.539 Y112.627 E12.08842
G1 X97.655 Y112.074 E12.11661
G1 X97.848 Y111.542 E12.14485
G1 X98.114 Y111.043 E12.17306
G1 X98.448 Y110.587 E12.20126
G1 X98.843 Y110.182 E12.22948
G1 X99.29 Y109.837 E12.25766
G1 X99.782 Y109.559 E12.28585
G1 X100.309 Y109.352 E12.3141
G1 X100.859 Y109.222 E12.34229
G0 F2100 X101.169 Y109.585
G1 F1500 X101.705 Y109.576 E12.36904
G1 X102.237 Y109.646 E12.39581
G1 X102.752 Y109.794 E12.42254
G1 X103.24 Y110.017 E12.44931
G1 X103.689 Y110.31 E12.47606
G1 X104.09 Y110.667 E12.50284
G1 X104.433 Y111.079 E12.52959
G1 X104.711 Y111.538 E12.55636
G1 X104.918 Y112.033 E12.58313
G1 X105.078 Y112.752 E12.61988
G1 X105.313 Y114.764 E12.72094
G1 X105.335 Y115.3 E12.7477
G1 X105.278 Y115.833 E12.77444
G1 X105.142 Y116.352 E12.80121
G1 X105.033 Y116.629 E12.81606
G1 X104.925 Y116.875 E12.82947
G1 X104.674 Y117.349 E12.85623
G1 X104.355 Y117.78 E12.88298
G1 X103.975 Y118.159 E12.90975
G1 X103.543 Y118.477 E12.93652
G1 X103.069 Y118.727 E12.96325
G1 X102.563 Y118.905 E12.99001
G1 X102.036 Y119.005 E13.01677
G1 X101.357 Y119.018 E13.05065
G1 X101.106 Y118.999 E13.06321
G1 X100.576 Y118.919 E13.08995
G1 X100.064 Y118.76 E13.1167
G1 X99.58 Y118.528 E13.14348
G1 X99.137 Y118.226 E13.17023
G1 X98.743 Y117.862 E13.19699
G1 X98.344 Y117.347 E13.22949
G1 X98.268 Y117.228 E13.23654
G1 X98.014 Y116.755 E13.26332
G1 X97.833 Y116.251 E13.29004
G1 X97.71 Y115.534 E13.32633
G1 X97.68 Y115.092 E13.34843
G1 X97.705 Y114.359 E13.38502
G1 X97.935 Y112.681 E13.46952
G1 X98.048 Y112.157 E13.49627
G1 X98.236 Y111.655 E13.52301
G1 X98.498 Y111.186 E13.54981
G1 X98.826 Y110.762 E13.57656
G1 X99.213 Y110.391 E13.6033
G1 X99.651 Y110.082 E13.63005
G1 X100.131 Y109.841 E13.65684
G1 X100.64 Y109.675 E13.68355
G1 X101.169 Y109.585 E13.71032
G0 F2100 X100.963 Y110.016
G1 F1500 X101.466 Y109.97 E13.73552
G1 X101.971 Y110.004 E13.76077
G1 X102.463 Y110.118 E13.78597
G1 X102.932 Y110.307 E13.8112
G1 X103.365 Y110.568 E13.83642
G1 X103.752 Y110.894 E13.86167
G1 X104.082 Y111.277 E13.88689
G1 X104.348 Y111.707 E13.91211
G1 X104.543 Y112.173 E13.93732
G1 X104.68 Y112.799 E13.96929
G1 X104.915 Y114.811 E14.07035
G1 X104.934 Y115.316 E14.09556
G1 X104.873 Y115.818 E14.12079
G1 X104.667 Y116.468 E14.15481
G1 X104.559 Y116.714 E14.16821
G1 X104.32 Y117.16 E14.19346
G1 X104.014 Y117.562 E14.21866
G1 X103.648 Y117.911 E14.24389
G1 X103.231 Y118.198 E14.26915
G1 X102.775 Y118.416 E14.29436
G1 X102.29 Y118.559 E14.31959
G1 X101.789 Y118.624 E14.34479
G1 X101.387 Y118.619 E14.36485
G1 X101.136 Y118.6 E14.37741
G1 X100.637 Y118.522 E14.40261
G1 X100.156 Y118.366 E14.42784
G1 X99.705 Y118.137 E14.45307
G1 X99.297 Y117.84 E14.47825
G1 X98.94 Y117.481 E14.50351
G1 X98.681 Y117.131 E14.52523
G1 X98.605 Y117.012 E14.53227
G1 X98.367 Y116.566 E14.55749
G1 X98.203 Y116.088 E14.58271
G1 X98.109 Y115.507 E14.61207
G1 X98.079 Y115.065 E14.63417
G1 X98.102 Y114.413 E14.66672
G1 X98.332 Y112.735 E14.75122
G1 X98.44 Y112.242 E14.7764
G1 X98.624 Y111.771 E14.80163
G1 X98.88 Y111.335 E14.82685
G1 X99.202 Y110.945 E14.85208
G1 X99.581 Y110.611 E14.87729
G1 X100.008 Y110.34 E14.90252
G1 X100.473 Y110.14 E14.92777
G1 X100.963 Y110.016 E14.95299
G1 F1500 E8.45299
G0 F2100 X101.485 Y85.819
G0 X101.488 Y84.94
G0 X101.495 Y84.828
G0 X101.528 Y84.734
;TYPE:WALL-OUTER
G1 F1500 E14.95299
G1 X101.54 Y84.745 E14.9538
G1 X101.543 Y84.953 E14.96418
G1 X101.528 Y84.953
G1 X101.501 Y84.953
G1 X101.49 Y84.953
G1 X101.474 Y84.953
G1 X101.49 Y84.747
G1 X101.501 Y84.736
G1 X101.528 Y84.734
G0 F2100 X101.54 Y84.745
G0 X101.542 Y84.929
G1 F1500 E8.46418
G0 F2100 X101.525 Y84.936
